svg/u1f964.svg

<svg viewBox="0 0 128 128" xmlns="http://www.w3.org/2000/svg">
  <path d="M65.12,17.55c-17.6-0.53-34.75,5.6-34.83,14.36c-0.04,5.2,1.37,18.6,3.62,48.68s2.25,33.58,3.5,34.95 c1.25,1.37,10.02,8.8,25.75,8.8s25.93-6.43,26.93-8.05c0.48-0.78,1.83-17.89,3.5-37.07c1.81-20.84,3.91-43.9,3.99-45.06 C97.82,30.66,94.2,18.43,65.12,17.55z" fill="#A6CFD6"/>
  <path d="M41.4,45.29c-0.12,0.62,1.23,24.16,2.32,27.94c1.99,6.92,9.29,7.38,10.23,4.16 c0.9-3.07-0.38-29.29-0.38-29.29s-3.66-0.3-6.43-0.84C44,46.63,41.4,45.29,41.4,45.29z" fill="#DCEDF6"/>
  <path d="M33.74,32.61c-0.26,8.83,20.02,12.28,30.19,12.22c13.56-0.09,29.48-4.29,29.8-11.7 S79.53,21.1,63.35,21.1C49.6,21.1,33.96,25.19,33.74,32.61z" fill="#6CA4AE"/>
  <path d="M84.85,13.1c-0.58,0.64-9.67,30.75-9.67,30.75s2.01-0.33,4-0.79c2.63-0.61,3.76-1.06,3.76-1.06 s7.19-22.19,7.64-23.09c0.45-0.9,21.61-7.61,22.31-7.93c0.7-0.32,1.39-0.4,1.46-0.78c0.06-0.38-2.34-6.73-3.11-6.73 C110.47,3.47,86.08,11.74,84.85,13.1z" fill="#DC0D27"/>
  <path d="M110.55,7.79c1.04,2.73,2.8,3.09,3.55,2.77c0.45-0.19,1.25-1.84,0.01-4.47 c-0.99-2.09-2.17-2.74-2.93-2.61C110.42,3.6,109.69,5.53,110.55,7.79z" fill="#8A1F0F"/>
  <path d="M91.94,18.34c-0.22,0-0.44-0.11-0.58-0.3l-3.99-5.77c-0.22-0.32-0.14-0.75,0.18-0.97 c0.32-0.22,0.76-0.14,0.97,0.18l3.99,5.77c0.22,0.32,0.14,0.75-0.18,0.97C92.21,18.3,92.07,18.34,91.94,18.34z" fill="#8A1F0F"/>
  <path d="M90.28,19.43c-0.18,0-0.35-0.07-0.49-0.2l-5.26-5.12c-0.28-0.27-0.28-0.71-0.01-0.99 c0.27-0.28,0.71-0.28,0.99-0.01l5.26,5.12c0.28,0.27,0.28,0.71,0.01,0.99C90.64,19.36,90.46,19.43,90.28,19.43z" fill="#8A1F0F"/>
  <path d="M89.35,21.22c-0.12,0-0.25-0.03-0.36-0.1l-5.6-3.39c-0.33-0.2-0.44-0.63-0.24-0.96 c0.2-0.33,0.63-0.44,0.96-0.24l5.6,3.39c0.33,0.2,0.44,0.63,0.24,0.96C89.82,21.1,89.59,21.22,89.35,21.22z" fill="#8A1F0F"/>
</svg>

<svg viewBox="0 0 128 128" xmlns="http://www.w3.org/2000/svg">
  <defs/>
  <path d="M65.12,17.55 C47.52,17.02 30.37,23.15 30.29,31.91 C30.25,37.11 31.66,50.51 33.91,80.59 C36.16,110.67 36.16,114.17 37.41,115.54 C38.66,116.91 47.43,124.34 63.16,124.34 C78.89,124.34 89.09,117.91 90.09,116.29 C90.57,115.51 91.92,98.4 93.59,79.22 C95.4,58.38 97.5,35.32 97.58,34.16 C97.82,30.66 94.2,18.43 65.12,17.55 Z" fill="#A6CFD6"/>
  <path d="M41.4,45.29 C41.28,45.91 42.63,69.45 43.72,73.23 C45.71,80.15 53.01,80.61 53.95,77.39 C54.85,74.32 53.57,48.1 53.57,48.1 C53.57,48.1 49.91,47.8 47.14,47.26 C44,46.63 41.4,45.29 41.4,45.29 Z" fill="#DCEDF6"/>
  <path d="M33.74,32.61 C33.48,41.44 53.76,44.89 63.93,44.83 C77.49,44.74 93.41,40.54 93.73,33.13 C94.05,25.72 79.53,21.1 63.35,21.1 C49.6,21.1 33.96,25.19 33.74,32.61 Z" fill="#6CA4AE"/>
  <path d="M84.85,13.1 C84.27,13.74 75.18,43.85 75.18,43.85 C75.18,43.85 77.19,43.52 79.18,43.06 C81.81,42.45 82.94,42 82.94,42 C82.94,42 90.13,19.81 90.58,18.91 C91.03,18.01 112.19,11.3 112.89,10.98 C113.59,10.66 114.28,10.58 114.35,10.2 C114.41,9.82 112.01,3.47 111.24,3.47 C110.47,3.47 86.08,11.74 84.85,13.1 Z" fill="#DC0D27"/>
  <path d="M110.55,7.79 C111.59,10.52 113.35,10.88 114.1,10.56 C114.55,10.37 115.35,8.72 114.11,6.09 C113.12,4 111.94,3.35 111.18,3.48 C110.42,3.6 109.69,5.53 110.55,7.79 Z" fill="#8A1F0F"/>
  <path d="M91.94,18.34 C91.72,18.34 91.5,18.23 91.36,18.04 L87.37,12.27 C87.15,11.95 87.23,11.52 87.55,11.3 C87.87,11.08 88.31,11.16 88.52,11.48 L92.51,17.25 C92.73,17.57 92.65,18 92.33,18.22 C92.21,18.3 92.07,18.34 91.94,18.34 Z" fill="#8A1F0F"/>
  <path d="M90.28,19.43 C90.1,19.43 89.93,19.36 89.79,19.23 L84.53,14.11 C84.25,13.84 84.25,13.4 84.52,13.12 C84.79,12.84 85.23,12.84 85.51,13.11 L90.77,18.23 C91.05,18.5 91.05,18.94 90.78,19.22 C90.64,19.36 90.46,19.43 90.28,19.43 Z" fill="#8A1F0F"/>
  <path d="M89.35,21.22 C89.23,21.22 89.1,21.19 88.99,21.12 L83.39,17.73 C83.06,17.53 82.95,17.1 83.15,16.77 C83.35,16.44 83.78,16.33 84.11,16.53 L89.71,19.92 C90.04,20.12 90.15,20.55 89.95,20.88 C89.82,21.1 89.59,21.22 89.35,21.22 Z" fill="#8A1F0F"/>
</svg>
